X:1
T:Seul....
T:Seul....
T:Louis VIERNE,Op.38
C:Louis VIERNE,Op.38
%%score { ( 1 2 5 ) | ( 3 4 6 ) }
L:1/8
Q:1/4=50
M:4/4
K:G
V:1 treble nm="Piano" snm="Pno."
V:2 treble 
V:5 treble 
V:3 bass 
V:4 bass 
V:6 bass 
V:1
"^Molto maestoso.(.)"!fff! z"_m.g." [cegc']- [cegc']2 z [dfbd'] z [eac'e'] | %1
 z [=f_a_d'=f']- [fad'f']2 z !>![gc'_e'g'][Q:1/4=46] z !>![_ac'f'_a'] | %2
[Q:1/4=44] z !>![_be'g'_b']-[Q:1/4=30] !fermata![be'g'b']6 | %3
[Q:1/4=120]"^Agitato molto a piacere.." z8 | z4 z2 z!f! (A | c z c2- cB c=d | ^de fg =A2 G2) | %7
 (!>!C2 F6) | z4 z2 z!mf! (a | =d2 c2- (3cdc (3Bcd | ^de fg de =AG) | (3^EFC F2 F4 | %12
!mf! z4 z2 z!p! ^F |"_cresc." A2 G2- (3G_ED (3E=E=F | %14
!<(! (3^FG^G (3A_B=B (3c^c!<)!d"_déchrant"!<(! (3!>!_e!>![cg]!>![ec']!<)! | %15
!ff! !>![B^db]4- [Bdb][^GB^g]"_cédez"[^DGd][B,DB] |!>(! (!>![^A,=D^A]2 [^G,D^G]2)!>)! z2 z!p! B | %17
!<(! d2 c2- (3c_AG (3A=A_B | (3=Bc^c (3d_e=e (3=f^fg (3!>!_a!>![fc']!>![af']!<)! | %19
!ff! !>![e^ge']4- [ege'][^ce^c'][^Gc^g][EGe] |!>(! !>![^D=G^d]2 [^CG^c]2!>)! z2 z!mf! ^c | %21
"_cresc." !>!^c4- (3cBB!<(! (3B^AB!<)! |"_cresc." !>!e6 vd2 | !>!G4- (3GFF (3F^EF | !>!B6 A2 | %25
!ff! !>!A6 _A2 |[Q:1/4=110] !>!G2[Q:1/4=108] !>!=F2[Q:1/4=100] !>!E2[Q:1/4=92] !>!C2 | %27
[Q:1/4=120]"^Tempo." B,2 z2 z4 | z4!p! z2 z (A | c z c2- cB c=d | ^de fg!>(! =A2 G2)!>)! | %31
 (FC F6) | z4 z2 z (a |!mf! =d>c c2- (3c^AB (3c^cd | ^de fg"_m.g."!>(! de"_m.d." =A!>)!G) | %35
"_m.g." (3^EF=C F2!p! F4 | z4 z2 z!mf! ^c | (!>!e2 d2-)"^cresc." (3d_B"^molto"A (3B=Bc | %38
!<(! (3^cd^d (3e=f^f (3g^ga (3_b[_ad'][bg']!<)! |!ff! !>![^f^a^f']4- [faf'][^df^d'] [^Ad^a][FAf] | %40
!>(! (!>![^E=A^e]2!>)!!f! [^DA^d]2) z2 z!mf! d | ^d2 ^c2- (3c!<(!A^G (3A^AB | %42
 (3^B^c^^c (3^de^e (3fg^g (3!>!a!>![f^c']!>![af']!<)! | %43
!ff! !>![=fa=d'=f']4- [fad'f'][dfd'][Ada][=FAf] | !>![E_Ae]2 !>![DAd]2!>(! z2 z!p! d!>)! | %45
!p! =F4- (3FEE (3E^DE | =B6 A2 |!<(! =A4- (3A^GG (3G^^FG | !>!^c6 =c2 | !>!c6[Q:1/4=110] B2!<)! | %50
"^ritard."!ff![Q:1/4=100] B3[Q:1/4=92] !tenuto!d !tenuto![Fc][Q:1/4=88]"_poco rubato"!f!!tenuto!E!tenuto!G[Q:1/4=80]!tenuto!=F | %51
 z8[Q:1/4=30][Q:1/4=60] |"^lento"[Q:1/4=56] z8[Q:1/4=54] |[Q:1/4=50]"^(.)""^m.g." [^D^^F^d=b]8 | %54
"^m.g." [E^Ge^a]8 |"^m.g." [^C=F^c=a]8 | [D^Gd^g]8 | [CEAf]8 | [^A,E^Ge]8 || %59
[K:E][M:12/8][Q:3/8=60]"^Dolce. (.)"!p! (^d12 | c12) |!p! (!>!d12 | c12) |!p! (!>!d12 | c12) | %65
!p![Q:3/8=50] (!>!d12[Q:3/8=54][Q:3/8=58][Q:3/8=56] |"^tempo"[Q:3/8=60] c12) |!pp! (v[dgbd']12 | %68
 [cegc']12) |!pp! ([dgbd']12 | [cegc']12) |[Q:3/8=54]!>(! !>!v[dgbd']12-[Q:3/8=58][Q:3/8=56] | %72
[Q:3/8=52] [dgbd']12!>)![Q:3/8=54] |!ppp! [cegc']12- | [cegc']12-[Q:3/8=50][Q:3/8=46][Q:3/8=30] | %75
 !fermata![cegc']12 |] %76
V:2
 x [CEG]- [CEG]2 x [DFB] z [EAc] | x [=F,_A,_D=F]- [F,A,DF]2 x [G,C_EG] x [G,CF_A] | %2
 x [_B,EG_B]- [B,EGB]6 | x8 | x8 | [^DF]8 | [EG]4 x4 | A,8 | x8 | [^DF]8 | [EG]4 ^C2 ^A,2 | A,8 | %12
 x8 | x8 | x8 | x8 | x8 | x8 | x8 | x8 | x8 | %21
 (3[^C^EG][CEG][CEG] (3[CEG][CEG][CEG] (3[CEG][B,EG][B,EG] (3[B,EG][^A,EG][B,EG] | %22
 (3[E^GB][EGB][EGB]"_molto" (3[EGB][EGB][EGB] (3[EGB][EGB][EGB] (3[D=FG][DFG][DFG] | %23
 (3[G,C^D][G,CD][G,CD] (3[G,CD][G,CD][G,CD] (3[G,CD][F,CD][F,CD] (3[F,CD][^E,CD][F,CD] | %24
 (3[B,^DF][B,DF][B,DF] (3[B,DF][B,DF][B,DF] (3[B,DF][B,DF][B,DF] (3[A,CD][A,CD][A,CD] | %25
 (3[_B,^C][B,C][B,C] (3[B,C][B,C][B,C] (3[B,D][B,D][B,D] (3[B,D][B,D][B,D] | %26
 (3!tenuto![=B,D]"_rit. molto"!tenuto![B,D]!tenuto![B,D] (3!tenuto![B,D]!tenuto![B,D]!tenuto![B,D][I:staff +1] (3!tenuto![G,B,]!tenuto![G,B,]!tenuto![G,B,] (3[E,G,][E,G,][E,G,] | %27
 [^D,F,]2[I:staff -1] x2 x4 | x8 | [^DF]8 | [EG]4 ^A,4 | A,8 | x8 | [^DF]8 | [EG]4 ^C2 ^A,2 | %35
 =A,8 | x8 | x8 | x8 | x8 | x8 | x8 | x8 | x8 | x8 | %45
 (3[G,_D][G,D][G,D] (3[G,D][G,D][G,D] (3[G,D][G,D][G,D] (3[G,D][G,_D][G,D] | %46
 (3[B,^D][B,D][B,D] (3[B,D][B,D][B,D] (3[B,D][B,D][B,D] (3[A,D][A,D][A,D] | %47
 (3[^A,E][A,E][A,E] (3[A,E][A,E][A,E] (3[A,E][A,E][A,E] (3[A,E][A,E][A,E] | %48
 (3[^C^E][CE][CE] (3[CE][CE][CE] (3[CF][CF][CF] (3[=CF][CF][CF] | %49
 (3[CG][CG][CG] (3[CG][CG][CG] (3[CG][CG][CG] (3[B,G][B,G][B,G] | G>F =F2- x4 | x8 | x8 | %53
 x (3x/ x/x/ (3:2:2x/x x x4 | x (3x/ x/x/ (3:2:2x/x x x4 | x (3x/ x/x/ (3:2:2x/x x x4 | %56
 x (3x/ x/x/ (3:2:2x/x x x4 | x (3x/ x/x/ (3:2:2x/x x x4 | x (3x/ x/x/ (3:2:2x/x x x4 || %59
[K:E][M:12/8] z6 [DB]6 | z6 [CG]6 | z6 [D=G]6 | z6 [C^E]6 | z6 [DB]6 | z6 [CA]6 | z6 !>![D^B]6 | %66
 x12 | x12 | x12 | x12 | x12 | x12 | x3 x2 !tenuto!D2 x x4 | x12 | x12 | x12 |] %76
V:3
"_m.g.""^m.d."!ped! !>!B,4!ped-up!!ped! !>!A,2!ped-up!!ped! !>!G,2!ped-up! | %1
!ped! !>!=F,4!ped-up!!ped! !>!_E,2!ped-up!"^rit."!ped! !>!_D,2!ped-up! | %2
!ped! !^!!fermata!C,8!ped-up! | %3
"_una corda"!f!!ped! (3[B,,,B,,]B,,B,, (3B,,B,,B,, (3B,,B,,B,, (3B,,B,,B,,!ped-up! | %4
!ped! (3!>!^A,,B,,=A,!>(! (3vC,B,,B,,!>)! (3B,,B,,B,, (3B,,B,,B,,!ped-up! | %5
"^senza rigore"!ped! A,8!ped-up! |!ped! ^A,4 E,4!ped-up! |!ped! ^D,8!ped-up! | %8
!ped!!<(! (3!>!^A,,B,,=A,!<)!!>(! (3vC,B,,B,,!>)! (3B,,!<(!B,,B,, (3B,,B,,B,,!ped-up!!<)! | %9
!ped! A,8!ped-up! |!ped! ^A,4 G,2 E,2!ped-up! |!ped!!>(! ^D,8!>)!!ped-up! | %12
!ped! (3!>!^A,,B,,=A,!>(! (3vC,B,,B,,!>)! (3B,,B,,B,,"_tre corde" (3B,,B,,B,,!ped-up! | %13
!ped! (3_B,,[_E,G,_D][E,G,D] (3[E,G,D][E,G,D][E,G,D] (3[E,G,D][E,G,D][E,G,D] (3[E,G,D][E,G,D][E,G,D]!ped-up! | %14
"^molto cresc."!ped! (3A,,[_E,G,C]"_maltelato"[E,G,C] (3[E,G,C][E,G,C][E,G,C] (3[E,G,C][E,G,C][E,G,C]"_senza rit." (3[E,G,C][E,G,C][E,G,C]!ped-up! | %15
!ped! (3z [^D,^G,B,^D][D,G,B,D] (3[D,G,B,D][D,G,B,D][D,G,B,D] (3[D,G,B,D][D,G,B,D][D,G,B,D] (3[D,G,B,D]!ped-up! z z | %16
!ped! (3z [B,,E,B,][B,,E,B,] (3[B,,E,B,][B,,E,B,][B,,E,B,]!ped-up!!ped! (3[B,,E,B,][B,,E,B,][B,,E,B,] (3[B,,E,B,][B,,E,B,][B,,E,B,]!ped-up! | %17
!ped! (3_E,[_A,C_G][A,CG] (3[A,CG][A,CG][A,CG] (3[A,CG][A,CG][A,CG] (3[A,CG][A,CG][A,CG]!ped-up! | %18
!ped! (3D,[_A,C=F][A,CF] (3[A,CF][A,CF][A,CF] (3[A,CF][A,CF][A,CF] (3[A,CF][A,CF][A,CF]!ped-up! | %19
!ped! (3z [^G,^CE^G][G,CEG] (3[G,CEG][G,CEG][G,CEG] (3[G,CEG][G,CEG][G,CEG] (3[G,CEG]!ped-up! z z | %20
!ped! (3z [E,A,E][E,A,E] (3[E,A,E][E,A,E][E,A,E]!ped-up!!ped! (3[E,A,E][E,A,E][E,A,E] (3[E,A,E][E,A,E][E,A,E]!ped-up! | %21
!ped! [D,,D,]2-!<(! (3:2:2([D,,D,]2 [^E,,^E,])!<)! [^G,,^G,]2-!>(! (3:2:2([G,,G,]2 [_D,,_D,])!ped-up!!>)! | %22
!ped! [=C,,=C,]2-!<(! (3:2:2([C,,C,]2 [=F,,=F,])!<)! [^G,,^G,]2-!ped-up!!>(!!ped! (3[G,,G,][B,,,B,,][_B,,,_B,,]!>)!!ped-up! | %23
!ped!!<(! [A,,,A,,]2- (3:2:2([A,,,A,,]2 [C,,C,])!<)! [^D,,^D,]2-!>(! (3:2:2([D,,D,]2 [_A,,,_A,,])!ped-up! | %24
!ped! [G,,,G,,]2-!>)!!<(! (3:2:2([G,,,G,,]2 [C,,C,])!<)! [^D,,^D,]2- (3[D,,D,]!>![F,,,F,,]!>![=F,,,=F,,]!ped-up! | %25
!ped! !^![E,,,E,,]4!ped-up!!ped! [=F,,,=F,,]4!ped-up! | %26
!ped! [G,,,G,,]4- [G,,,G,,][A,,,A,,]!ped-up!!ped! [^A,,,^A,,]2!ped-up! | %27
 (3[B,,,B,,]B,,!>(!B,, (3B,,B,,B,, (3B,,B,,B,, (3B,,B,,B,,!>)! | %28
!ped!!<(! (3!>!^A,,B,,=A,!<)!!>(! (3vC,B,,B,,!>)! (3B,,B,,B,, (3B,,B,,B,,!ped-up! | %29
!ped! A,8!ped-up! |!ped! ^A,4 E,4!ped-up! |!ped!!>(! ^D,8!>)!!ped-up! | %32
!<(!!ped! (3!>!^A,,B,,=A,!<)!!>(! (3vC,B,,B,,!>)!!p! (3B,,!<(!B,,B,, (3B,,B,,B,,!ped-up!!<)! | %33
!ped! A,8!ped-up! |!ped! ^A,4 G,2 E,2!ped-up! |!>(!!ped! ^D,4!>)! x4!ped-up! | %36
!ped!!<(! (3^A,,B,,=A,!<)! (3C,B,,B,, (3B,,B,,B,,"_tre corde" (3B,,B,,B,,!ped-up! | %37
!ped! (3z [_B,D_A][B,DA] (3[B,DA][B,DA][B,DA] (3[B,DA][B,DA][B,DA] (3[B,DA][B,DA][B,DA]!ped-up! | %38
!ped! (3z [_B,DG][B,DG] (3[B,DG][B,DG][B,DG] (3[B,DG][B,DG][B,DG] (3[B,DG][B,DG][B,DG]!ped-up! | %39
!ped! (3z [^A,^D^F^A][A,DFA] (3[A,DFA][A,DFA][A,DFA] (3[A,DFA][A,DFA][A,DFA] (3[A,DFA]!ped-up! z z | %40
!ped! (3z [F,B,F][F,B,F] (3[F,B,F][F,B,F][F,B,F] (3[F,B,F][F,B,F][F,B,F] (3[F,B,F][F,B,F][F,B,F]!ped-up! | %41
!ped! (3z [A,^CG][A,CG] (3[A,CG][A,CG][A,CG] (3[A,CG]"^cresc. molto"[A,CG][A,CG] (3[A,CG][A,CG][A,CG]!ped-up! | %42
!ped! (3z [A,^CF][A,CF] (3[A,CF][A,CF][A,CF] (3[A,CF][A,CF][A,CF] (3[A,CF][A,CF][A,CF]!ped-up! | %43
!ped! (3z [A,=D=FA][A,DFA] (3[A,DFA][A,DFA][A,DFA] (3[A,DFA][A,DFA][A,DFA] (3[A,DFA] z z!ped-up! | %44
!ped! (3z [=F,_B,=F][F,B,F] (3[F,B,F][F,B,F][F,B,F] (3[F,B,F][F,B,F][F,B,F] (3[F,B,F][F,B,F][F,B,F]!ped-up! | %45
!ped! (3[_B,,,_E,,_B,,][B,,,E,,B,,][B,,,E,,B,,] (3[B,,,E,,B,,][B,,,E,,B,,][B,,,E,,B,,] (3[B,,,E,,B,,][B,,,E,,B,,][B,,,E,,B,,] (3[B,,,E,,B,,][B,,,E,,B,,][B,,,E,,B,,]!ped-up! | %46
!ped! (3[C,,=F,,C,][C,,F,,C,][C,,F,,C,] (3[C,,F,,C,][C,,F,,C,][C,,F,,C,] (3[C,,F,,C,][C,,F,,C,][C,,F,,C,] (3[C,,F,,C,][C,,F,,C,][C,,F,,C,]!ped-up! | %47
!ped! (3[^C,,^F,,^C,][C,,F,,C,][F,,C,] (3[F,,C,][F,,C,][F,,C,] (3[F,,C,][F,,C,][F,,C,] (3[F,,C,][F,,C,][F,,C,]!ped-up! | %48
!ped! (3[D,,^G,,D,][D,,G,,D,][D,,G,,D,] (3[D,,G,,D,][D,,G,,D,][D,,G,,D,] (3[D,,A,,D,][D,,A,,D,][D,,A,,D,]!ped-up!!ped! (3[^D,,A,,^D,][D,,A,,D,][D,,A,,D,]!ped-up! | %49
!ped! (3[E,,^A,,E,][E,,A,,E,][E,,A,,E,] (3[E,,A,,E,][E,,A,,E,][E,,A,,E,] (3[E,,A,,E,][E,,A,,E,][E,,A,,E,]!ped-up!!ped! (3[E,,B,,E,][E,,B,,E,][E,,B,,E,]!ped-up! | %50
!ped! [A,,,A,,]4- [A,,,A,,]!ped-up!!ped! z z2!ped-up! | %51
"^rit." B,DCE,-!mf! !fermata!E,!fermata!G,-"^a piacere" G,/=F,/G,/A,/ | %52
!<(! B,,6!<)!"_una corda"!>(! ^B,,2!>)! |!ped!!>(! !arpeggio![^C,^^F,=B,]8!ped-up! | %54
!ped! !arpeggio![D,^G,^B,]8!ped-up! |!ped! !arpeggio![=G,,=F,=B,]8!ped-up! | %56
"_2"!ped! !arpeggio![_B,,=F,_B,]8!ped-up! |"_2"!ped! !arpeggio![D,,A,,^F,]8!ped-up! | %58
"_2"!ped! !arpeggio![F,,^C,F,]8!>)!!ped-up! || %59
[K:E][M:12/8]!ped!!<(! (=G,,=F,B, F,B,=F- FFB, F,3)!ped-up!!<)! | %60
!ped!!>(! (C,,^G,,C, ^E,B,^E- EEB, E,3)!ped-up!!>)! | %61
!<(!!ped! (=F,,=C,A, =F,=CA- AAC F,3)!<)!!ped-up! | %62
!ped!!>(! (^A,,D,^A, ^^F,^C^^F- FFC F,3)!ped-up!!>)! | %63
!<(!!ped! (=G,,=F,B, F,B,=F- FFB, F,3)!<)!!ped-up! | %64
!ped!!>(! (=D,,A,,=D, F,A,F- FFA,"^poco rit." F,3)!ped-up!!>)! | %65
!ped!!<(! (^^G,,^^F,^B, F,B,^^F- FFB, F,3)!ped-up!!<)! | %66
"^transparent"!<(!!ped! (E,,,E,,=B,, E,B,[I:staff -1]C!<)!!>(! GC[I:staff +1]B, E,B,,E,,)!ped-up!!>)! | %67
"^dolcissimo"!ped! (E,,,E,,B,, E,B,[I:staff -1]D GD[I:staff +1]B, E,B,,E,,)!ped-up! | %68
!ped! (E,,,E,,B,, E,B,[I:staff -1]C GC[I:staff +1]B, E,B,,E,,)!ped-up! | %69
!ped! (G,,,E,,B,, E,B,[I:staff -1]D GD[I:staff +1]B, E,B,,E,,)!ped-up! | %70
!ped! (E,,,E,,B,, E,B,[I:staff -1]C GC[I:staff +1]B, E,B,,E,,)!ped-up! | %71
"^rall al fine"!ped! (E,,,E,,B,, E,B,[I:staff -1]D GD[I:staff +1]B, E,B,,E,,) | %72
 (G,,,E,,B,, E,B,"^(   )"[I:staff -1]!>!D GD[I:staff +1]B, E,B,,E,,)!ped-up! | %73
!ped! (E,,,E,,B,, E,B,C GCB, E,B,,E,,) | (E,,,E,,B,, E,B,"^(   )"C GCB, E,B,,E,,-) | %75
 !fermata![E,,,E,,]12!ped-up! |] %76
V:4
 [B,,,B,,]4 [A,,,A,,]2 [G,,,G,,]2 | [=F,,,=F,,]4 [_E,,,_E,,]2 [_D,,,_D,,]2 | [C,,,C,,]8 | x8 | x8 | %5
 (3B,,B,,B,, (3B,,B,,B,,!<(! (3B,,B,,B,, (3B,,B,,B,, | %6
 (3B,,B,,B,, (3B,,B,,B,, (3B,,B,,B,, (3B,,B,,B,,!<)! | %7
 (3B,,B,,B,,!>(! (3B,,B,,B,,!>)!!<(! (3B,,B,,B,, (3B,,B,,B,,!<)! | x8 | %9
 (3B,,,B,,B,, (3B,,B,,B,,!<(! (3B,,B,,B,, (3B,,B,,B,, | %10
 (3B,,B,,B,, (3B,,B,,B,, (3B,,B,,B,, (3B,,B,,B,,!<)! | %11
 (3B,,B,,B,, (3B,,B,,B,,!<(! (3B,,B,,B,, (3B,,B,,B,,!<)! | x8 | _B,,8 | A,,8 | %15
 [^G,,,^G,,]6- (3[G,,,G,,][F,,,F,,][=F,,,=F,,] | [E,,,E,,]8 | _E,8 | D,8 | %19
 [^C,,^C,]6- (3[C,,C,][B,,,B,,][_A,,,_B,,] | [A,,,A,,]8 | x8 | x8 | x8 | x8 | x8 | x8 | x8 | x8 | %29
 (3B,,,B,,B,, (3B,,B,,B,, (3B,,B,,B,,!<(! (3B,,B,,B,, | %30
 (3B,,B,,!<)!B,, (3B,,B,,B,, (3B,,B,,B,, (3B,,B,,B,, | %31
 (3B,,B,,B,, (3B,,B,,B,, (3B,,B,,B,, (3B,,B,,B,, | x8 | %33
 (3B,,,B,,B,, (3B,,B,,B,, (3B,,B,,B,, (3B,,B,,B,, | %34
 (3B,,B,,B,, (3B,,B,,B,, (3B,,B,,B,, (3B,,B,,B,, | %35
 (3B,,B,,B,, (3B,,B,,B,, (3B,,B,,B,, (3B,,B,,B,, | x8 | =F,8 | E,8 | %39
 [^D,,,^D,,]6- (3[D,,,D,,][^C,,,^C,,][=C,,,=C,,] | [B,,,,B,,,]8 | =E,8 | ^D,8 | %43
 [=D,,=D,]6- (3[D,,D,][C,,C,][B,,,B,,] | [_B,,,_B,,]8 | x8 | x8 | x8 | x8 | x8 | x8 | x8 | x8 | %53
 (3:2:2xx/(3x/ x/ x/ x2 x4 | (3:2:2xx/(3x/ x/ x/ x2 x4 | (3:2:2xx/(3x/ x/ x/ x2 x4 | %56
 (3:2:2xx/(3x/ x/ x/ x2 x4 | (3:2:2xx/(3x/ x/ x/ x2 x4 | (3:2:2xx/(3x/ x/ x/ x2 x4 || %59
[K:E][M:12/8] =G,,12 | C,,12 | =F,,12 | ^A,,12 | =G,,12 | =D,,12 | ^^G,,12 | E,,,12 | E,,,12 | %68
 E,,,12 | G,,,12 | E,,,12 | E,,,12 | G,,,12 | E,,,12 | E,,,12 | x12 |] %76
V:5
 x8 | x8 | x8 | x8 | x8 | x8 | x8 | x8 | x8 | x8 | x8 | x8 | x8 | x8 | x8 | x8 | x8 | x8 | x8 | %19
 x8 | x8 | x8 | x8 | x8 | x8 | x8 | x8 | x8 | x8 | x8 | x8 | x8 | x8 | x8 | x8 | x8 | x8 | x8 | %38
 x8 | x8 | x8 | x8 | x8 | x8 | x8 | x8 | x8 | x8 | x8 | x8 | C4- C x x2 | x8 | x8 | x8 | x8 | x8 | %56
 x8 | x8 | x8 ||[K:E][M:12/8] x12 | x12 | x12 | x12 | x12 | x12 | x12 | x12 | x12 | x12 | x12 | %70
 x12 | x12 | x12 | x12 | x12 | x12 |] %76
V:6
 x8 | x8 | x8 | x8 | x8 | x8 | x8 | x8 | x8 | x8 | x8 | x8 | x8 | x8 | x8 | x8 | x8 | x8 | x8 | %19
 x8 | x8 | x8 | x8 | x8 | x8 | x8 | x8 | x8 | x8 | x8 | x8 | x8 | x8 | x8 | x8 | x8 | x8 | x8 | %38
 x8 | x8 | x8 | x8 | x8 | x8 | x8 | x8 | x8 | x8 | x8 | x8 | x8 | x8 | x8 | x8 | x8 | x8 | x8 | %57
 x8 | x8 ||[K:E][M:12/8] x12 | x12 | x12 | x12 | x12 | x12 | x12 | x12 | x12 | x12 | x12 | x12 | %71
 x12 | x12 | x12 | x3 x2 C2 x2 x3 | x12 |] %76

